static/logos/sentry-wordmark-color.svg

<svg width="100" height="23" viewBox="0 0 100 23" fill="none" xmlns="http://www.w3.org/2000/svg">
<g clip-path="url(#clip0_1_1123)">
<path d="M14.6584 1.36253C14.4516 1.01935 14.1596 0.735454 13.8108 0.538374C13.462 0.341297 13.0681 0.237732 12.6675 0.237732C12.2668 0.237732 11.8729 0.341297 11.5241 0.538374C11.1752 0.735454 10.8833 1.01935 10.6765 1.36253L7.4014 6.97202C9.90345 8.22116 12.0352 10.1031 13.585 12.4309C15.1349 14.7587 16.0488 17.4514 16.2362 20.2416H13.9367C13.7496 17.8499 12.9413 15.5484 11.5917 13.565C10.242 11.5815 8.39787 9.98492 6.24168 8.93309L3.21046 14.1742C4.42262 14.7179 5.47864 15.5575 6.2814 16.616C7.08419 17.6745 7.60798 18.9178 7.80458 20.2317H2.5236C2.46097 20.2272 2.40042 20.2073 2.34743 20.1736C2.29443 20.1399 2.25065 20.0936 2.22003 20.0388C2.18942 19.984 2.17293 19.9224 2.17205 19.8596C2.17117 19.7968 2.18593 19.7348 2.215 19.6792L3.67834 17.1905C3.18256 16.7769 2.61595 16.4565 2.00595 16.2448L0.557542 18.7335C0.406757 18.9921 0.308865 19.2781 0.26956 19.5749C0.230254 19.8717 0.250316 20.1734 0.328578 20.4623C0.406843 20.7513 0.541746 21.0218 0.725456 21.2583C0.909166 21.4946 1.13802 21.6922 1.39872 21.8394C1.7422 22.0329 2.12935 22.1357 2.5236 22.138H9.75569C9.89 20.4806 9.59403 18.8165 8.8964 17.3071C8.19881 15.7976 7.1232 14.4939 5.77381 13.5222L6.92359 11.5313C8.62654 12.7009 9.99508 14.2944 10.8941 16.1545C11.7932 18.0145 12.1917 20.0769 12.0502 22.138H18.1774C18.32 19.0157 17.6408 15.9106 16.2075 13.1331C14.7742 10.3556 12.637 8.00282 10.0095 6.31003L12.334 2.32814C12.3858 2.24135 12.4697 2.17855 12.5676 2.15338C12.6655 2.12821 12.7694 2.14272 12.8566 2.19375C13.1204 2.33809 22.9556 19.5 23.1398 19.6991C23.1722 19.7573 23.1888 19.823 23.1876 19.8896C23.1865 19.9562 23.1679 20.0213 23.1335 20.0784C23.0992 20.1355 23.0504 20.1825 22.992 20.2146C22.9337 20.2468 22.8679 20.263 22.8013 20.2615H20.4321C20.462 20.8953 20.462 21.5275 20.4321 22.1579H22.8113C23.1134 22.1599 23.4129 22.1019 23.6925 21.9874C23.972 21.8728 24.2261 21.704 24.4399 21.4906C24.6538 21.2772 24.8232 21.0235 24.9384 20.7442C25.0535 20.4648 25.1122 20.1655 25.1108 19.8633C25.1111 19.4643 25.0046 19.0725 24.8022 18.7285L14.6584 1.36253ZM62.1025 14.3136L54.7559 4.82677H52.9244V17.5439H54.7807V7.79826L62.3365 17.5439H63.9592V4.82677H62.1025V14.3136ZM43.6017 11.9543H50.1868V10.3018H43.5967V6.47428H51.0279V4.82179H41.7053V17.5439H51.1224V15.8914H43.5967L43.6017 11.9543ZM35.857 10.3417C33.2937 9.72447 32.5768 9.23671 32.5768 8.0521C32.5768 6.98693 33.5175 6.26522 34.9213 6.26522C36.1995 6.30265 37.4324 6.74735 38.4401 7.53445L39.4357 6.12585C38.1597 5.12566 36.5768 4.59804 34.9561 4.63265C32.4376 4.63265 30.6804 6.12585 30.6804 8.25119C30.6804 10.5408 32.1738 11.3322 34.8912 11.9942C37.3103 12.5516 38.052 13.0693 38.052 14.229C38.052 15.3887 37.0564 16.1054 35.5186 16.1054C33.9873 16.0984 32.5139 15.5197 31.3873 14.4828L30.2675 15.8217C31.7105 17.0617 33.5512 17.7418 35.4536 17.738C38.1813 17.738 39.9335 16.2697 39.9335 14C39.9186 12.0788 38.7835 11.0485 35.857 10.3417ZM97.631 4.82677L93.8034 10.7996L90.0006 4.82677H87.7807L92.8028 12.5168V17.5489H94.7141V12.457L99.771 4.82677H97.631ZM65.4622 6.54892H69.6282V17.5489H71.5396V6.54892H75.7056V4.82677H65.4672L65.4622 6.54892ZM84.5453 12.5815C86.4666 12.0489 87.5318 10.705 87.5318 8.78375C87.5318 6.33989 85.7451 4.80188 82.863 4.80188H77.2089V17.5389H79.1001V12.9697H82.3105L85.536 17.5489H87.7459L84.2617 12.6611L84.5453 12.5815ZM79.0951 11.3372V6.50911H82.6639C84.5255 6.50911 85.5907 7.39011 85.5907 8.91815C85.5907 10.4462 84.4509 11.3372 82.6838 11.3372H79.0951Z" fill="#362D59"/>
</g>
<defs>
<clipPath id="clip0_1_1123">
<rect width="100" height="22.3757" fill="white"/>
</clipPath>
</defs>
</svg>

<svg xmlns="http://www.w3.org/2000/svg" width="278.261" height="64" fill="none" viewBox="0 0 100 23"><g clip-path="url(#a)"><path fill="#362D59" d="M14.658 1.363a2.325 2.325 0 0 0-3.981 0L7.4 6.972a16.032 16.032 0 0 1 8.835 13.27h-2.3A13.778 13.778 0 0 0 6.243 8.933L3.21 14.174a7.924 7.924 0 0 1 4.595 6.058H2.524a.379.379 0 0 1-.309-.553l1.463-2.488a5.348 5.348 0 0 0-1.672-.946L.558 18.733a2.26 2.26 0 0 0 .84 3.106c.344.194.731.297 1.126.299h7.232a9.656 9.656 0 0 0-3.982-8.616l1.15-1.99a11.88 11.88 0 0 1 5.126 10.606h6.127A17.86 17.86 0 0 0 10.01 6.31l2.325-3.982a.383.383 0 0 1 .523-.134c.263.144 10.099 17.306 10.283 17.505a.378.378 0 0 1-.339.563h-2.369c.03.633.03 1.265 0 1.896h2.38a2.285 2.285 0 0 0 1.99-3.43L14.658 1.364Zm47.444 12.95-7.346-9.486h-1.832v12.717h1.857V7.798l7.556 9.746h1.622V4.827h-1.857v9.487Zm-18.5-2.359h6.585v-1.652h-6.59V6.474h7.43V4.822h-9.322v12.722h9.417V15.89h-7.525l.005-3.937Zm-7.745-1.612c-2.563-.618-3.28-1.105-3.28-2.29 0-1.065.94-1.787 2.344-1.787a6.002 6.002 0 0 1 3.52 1.27l.995-1.41a7.019 7.019 0 0 0-4.48-1.492c-2.518 0-4.276 1.493-4.276 3.618 0 2.29 1.494 3.081 4.211 3.743 2.42.558 3.161 1.075 3.161 2.235s-.996 1.876-2.533 1.876a6.142 6.142 0 0 1-4.132-1.622l-1.12 1.339a7.933 7.933 0 0 0 5.187 1.916c2.727 0 4.48-1.468 4.48-3.738-.015-1.921-1.15-2.951-4.077-3.658Zm61.774-5.515L93.803 10.8l-3.802-5.973h-2.22l5.022 7.69v5.032h1.911v-5.092l5.057-7.63h-2.14ZM65.462 6.549h4.166v11h1.912v-11h4.166V4.827H65.467l-.005 1.722Zm19.083 6.032c1.922-.532 2.987-1.876 2.987-3.797 0-2.444-1.787-3.982-4.669-3.982h-5.654v12.737H79.1v-4.57h3.21l3.226 4.58h2.21l-3.484-4.888.283-.08Zm-5.45-1.244V6.51h3.569c1.861 0 2.927.881 2.927 2.41 0 1.527-1.14 2.418-2.907 2.418h-3.589Z"/></g><defs><clipPath id="a"><path fill="#fff" d="M0 0h100v22.376H0z"/></clipPath></defs></svg>
